X: 12062
T: Escher's Staircase
R: jig
M: 6/8
K: Dmixolydian
"D" DED FDG|DAD BDc|"C" dcB cBA|GEC G,CE|
"D" DED FDG|DAD BDc|"C"dcB AGE|CEG D2 D|
"D" DED FDG|DAD BDc|"C" dcB cBA|GEC GFE|
"D" DED FDG|DAD BDc|"C"dcB AGE|CEG DFA||
"D" dAe fAg|agf edB|"C"~c3 ece|"G" gdB gfe|
"D"~d3 ede|"D"~f3 efg|fed cAG|"A"EFG AB^c|
"D" dAe fAg|agf edB|"C"~c3 ece|"G"gdB gfe|
"D"~f3 gfg|agf gdB|"C"cBA GEC|G,CE GFE||

